X: 1
T: Ned Coleman's Jig
T: Carolan's Fancy
M: 2/2
L: 1/8
R: Double Jig
Z: Rob Greenway <rgreenwa:NAS.EDU> IRTRAD-L 2000-11-06
K: G
|: EDE G2A | ~B3 dBd | edB GAB | ABA AGF |
   EDE G2A | ~B3 dBd | edB GAB | AGF G3 :|
|: dBd def | g2e fdB | ~A3 ABd | egf e2f |
   gfe fed | edB g3  | edB ABc | BGF G3 :|
